assets/post/images/spectrum2.svg

<svg xmlns="http://www.w3.org/2000/svg" width="1298" height="651" overflow="hidden"><defs><clipPath id="a"><path d="M409 381h1298v651H409z"/></clipPath></defs><g clip-path="url(#a)" transform="translate(-409 -381)"><path d="M409.5 731.917h1209.26v9.167l-1209.26-.001Zm1204.67-18.333 45.83 22.917-45.83 22.916Z"/><path d="M1061.083 1008.96V468.75h-9.166v540.21Zm18.334-535.626L1056.5 427.5l-22.916 45.834Z"/><path fill="none" stroke="#f8ccb9" stroke-dasharray="27.5 9.16667" stroke-miterlimit="8" stroke-width="9.167" d="M409.5 556.5H1660m-1250.5 358H1660"/><path fill="none" stroke="#d74514" stroke-miterlimit="8" stroke-width="9.167" d="M752.5 735.64c21.357-51.451 42.714-102.902 64.286-132.425 21.571-29.523 43.571-44.715 65.143-44.715 21.571 0 42.857 15.048 64.286 44.715 21.428 29.667 42.857 81.476 64.285 133.285m-517-.14c21.44 51.451 42.88 102.902 64.535 132.425s43.74 44.715 65.395 44.715 43.024-15.048 64.535-44.715C709.477 839.12 730.988 787.31 752.5 735.5m517-1.86c21.36-51.451 42.71-102.902 64.29-132.425 21.57-29.523 43.57-44.715 65.14-44.715s42.86 15.048 64.28 44.715c21.43 29.667 42.86 81.476 64.29 133.285m-517-.14c21.44 51.451 42.88 102.902 64.535 132.425s43.74 44.715 65.395 44.715 43.024-15.048 64.535-44.715c21.512-29.667 43.023-81.476 64.535-133.285"/><path fill-rule="evenodd" d="M1609.82 646.968h5.59l-2.23 10.011h12.32l-.89 4.093h-12.32l-3.61 15.724c-.7 3.053-1.15 5.249-1.33 6.586-.19 1.338-.29 2.412-.29 3.222 0 3.35 1.39 5.025 4.18 5.025 1.19 0 2.45-.452 3.79-1.357 1.33-.905 2.92-2.452 4.76-4.641l2.35 2.432c-2.35 2.837-4.62 4.931-6.79 6.282-2.18 1.351-4.45 2.026-6.83 2.026-5.65 0-8.47-2.85-8.47-8.551q0-2.715.69-5.714l4.78-21.034h-6.81l.61-2.797c1.6-.027 2.8-.148 3.63-.364q1.23-.324 2.07-.892c.55-.378 1.06-.919 1.52-1.621.45-.702.9-1.601 1.33-2.695q.645-1.641 1.95-5.735"/><text x="1598.71" y="690.196" fill-opacity="0" font-family="Arial,Arial_MSFontService,sans-serif" font-size="49.403">𝑡</text><path fill-rule="evenodd" d="M1115.52 476.68c.84 0 1.57.095 2.21.284q.945.283 1.68.871c.49.392.92.898 1.3 1.52.38.621.74 1.466 1.09 2.533s.68 2.391 1 3.971c.31 1.581.58 3.222.83 4.925h.4c2.6-3.648 4.56-6.316 5.9-8.005 1.34-1.688 2.46-2.945 3.38-3.769s1.81-1.405 2.66-1.742c.85-.338 1.98-.507 3.38-.507q1.905 0 3.12.486l-1.62 7.336h-2.84c-.16-1.135-.63-1.702-1.42-1.702-.24 0-.5.04-.77.121q-.405.122-.99.527c-.39.27-.96.797-1.72 1.581q-1.14 1.174-2.55 2.877c-.95 1.135-1.92 2.324-2.92 3.567l-2.76 3.444q.735 3.891 1.38 6.728c.43 1.891.82 3.465 1.16 4.721.33 1.257.63 2.25.89 2.979.25.73.53 1.277.83 1.641s.6.622.91.77.67.223 1.07.223q1.095 0 2.13-.851c.69-.567 1.68-1.85 2.98-3.85l2.63 1.743c-1.89 2.81-3.6 4.789-5.12 5.937-1.53 1.148-3.35 1.723-5.45 1.723-1.17 0-2.15-.21-2.96-.629-.81-.418-1.51-1.087-2.11-2.006-.59-.918-1.12-2.35-1.58-4.296-.84-3.458-1.35-6.106-1.54-7.943h-.41c-2.86 4.026-4.99 6.917-6.38 8.673s-2.54 3.053-3.44 3.89q-1.365 1.257-2.64 1.763c-.85.338-1.98.507-3.38.507q-1.905 0-3.12-.486l1.62-7.336h2.84q.24 1.702 1.41 1.702.57 0 1.2-.304.63-.303 1.8-1.459c.79-.77 1.87-1.979 3.25-3.627 1.37-1.648 3.37-4.12 5.99-7.416-.4-2.135-.82-4.188-1.25-6.16s-.88-3.81-1.34-5.512-.84-2.817-1.13-3.344q-.45-.79-.96-1.094c-.33-.203-.76-.304-1.27-.304-.57 0-1.08.129-1.54.385q-.69.385-1.5 1.338c-.54.635-1.26 1.627-2.15 2.978l-2.64-1.742c1.71-2.567 3.34-4.485 4.91-5.755q2.355-1.905 5.55-1.905"/><text x="1100.73" y="511.751" fill-opacity="0" font-family="Arial,Arial_MSFontService,sans-serif" font-size="40.081">𝑥</text><path fill-rule="evenodd" d="M1217.67 453.999q11.835 3.12 18.18 13.475c4.22 6.903 6.34 15.232 6.34 24.985 0 9.781-2.11 18.109-6.32 24.986-4.22 6.876-10.28 11.354-18.2 13.434l-.97-3.12q9.36-3.12 13.92-12.321 4.56-9.199 4.56-23.384c0-9.132-1.52-16.717-4.54-22.756-3.03-6.039-7.72-10.098-14.06-12.178Zm-39.73 0 1.09 3.121q-9.48 3.12-14.04 12.178t-4.56 22.756q0 14.185 4.56 23.384t13.92 12.321l-.97 3.12c-7.92-2.08-13.98-6.558-18.2-13.434-4.21-6.877-6.32-15.205-6.32-24.986 0-9.753 2.11-18.082 6.34-24.985q6.345-10.355 18.18-13.475m18.27 13.36h5.59l-2.23 10.01h12.32l-.89 4.093h-12.32l-3.61 15.725c-.7 3.053-1.14 5.248-1.33 6.586-.19 1.337-.29 2.411-.29 3.221 0 3.351 1.39 5.026 4.18 5.026 1.19 0 2.45-.453 3.79-1.358 1.33-.905 2.92-2.452 4.76-4.64l2.35 2.431c-2.35 2.837-4.61 4.931-6.79 6.282-2.17 1.351-4.45 2.027-6.83 2.027-5.65 0-8.47-2.851-8.47-8.552q0-2.715.69-5.714l4.78-21.034h-6.81l.61-2.796q2.4-.04 3.63-.365 1.23-.324 2.07-.892c.55-.378 1.06-.918 1.52-1.621.46-.702.9-1.6 1.33-2.695.44-1.094 1.08-3.005 1.95-5.734"/><text x="1185.1" y="510.586" fill-opacity="0" font-family="Arial,Arial_MSFontService,sans-serif" font-size="49.403">𝑡</text><path fill="#d74514" fill-rule="evenodd" d="m488.13 597.967-14.427 25.532h15.846l-.689-13.05a273 273 0 0 1-.203-6.687 324 324 0 0 1-.081-5.795Zm.243-8.551h6.12l2.918 45.188q.202 3.202.73 5.005.526 1.803 1.438 2.675t2.655 1.114l-.446 1.986h-16.859l.445-1.986q2.391-.202 3.567-1.864 1.175-1.662 1.175-5.836 0-1.58-.121-3.445l-.284-5.228h-17.832l-2.229 3.972q-1.581 2.796-2.31 4.802-.73 2.007-.73 3.546 0 3.405 4.093 4.053l-.445 1.986h-16.576l.446-1.986q1.256-.162 2.371-.993 1.114-.83 2.371-2.512 1.255-1.683 3.525-5.573Z"/><text x="453.682" y="638.388" fill-opacity="0" font-family="Arial,Arial_MSFontService,sans-serif" font-size="55.968">𝐴</text><path fill="#d74514" fill-rule="evenodd" d="M460.667 967.783h49.929v5.39h-49.929Z"/><text x="460.667" y="972.499" fill-opacity="0" font-family="Arial,Arial_MSFontService,sans-serif" font-size="5.39">−</text><path fill="#d74514" fill-rule="evenodd" d="m550.424 946.79-14.427 25.532h15.846l-.689-13.05a273 273 0 0 1-.203-6.687 325 325 0 0 1-.081-5.795Zm.244-8.552h6.119l2.918 45.188q.202 3.202.73 5.006.527 1.803 1.438 2.674.912.872 2.655 1.115l-.446 1.986h-16.859l.446-1.986q2.39-.203 3.566-1.864t1.175-5.836q0-1.58-.121-3.445l-.284-5.228h-17.832l-2.229 3.971q-1.581 2.798-2.31 4.803t-.73 3.546q0 3.405 4.094 4.053l-.446 1.986h-16.576l.446-1.986q1.257-.162 2.371-.993t2.371-2.513 3.526-5.572Z"/><text x="515.976" y="987.211" fill-opacity="0" font-family="Arial,Arial_MSFontService,sans-serif" font-size="55.968">𝐴</text></g></svg>

<svg width="1298" height="651" xmlns="http://www.w3.org/2000/svg" xmlns:xlink="http://www.w3.org/1999/xlink" overflow="hidden"><defs><clipPath id="clip0"><rect x="409" y="381" width="1298" height="651"/></clipPath></defs><g clip-path="url(#clip0)" transform="translate(-409 -381)"><path d="M409.5 731.917 1618.76 731.917 1618.76 741.084 409.5 741.083ZM1614.17 713.584 1660 736.501 1614.17 759.417Z"/><path d="M4.58333-2.84472e-06 4.58367 540.21-4.583 540.21-4.58333 2.84472e-06ZM22.917 535.626 0.000360892 581.46-22.9163 535.626Z" transform="matrix(1 0 0 -1 1056.5 1008.96)"/><path d="M409.5 556.5 1660 556.5" stroke="#F8CCB9" stroke-width="9.16667" stroke-miterlimit="8" stroke-dasharray="27.5 9.16667" fill="none" fill-rule="evenodd"/><path d="M409.5 914.5 1660 914.5" stroke="#F8CCB9" stroke-width="9.16667" stroke-miterlimit="8" stroke-dasharray="27.5 9.16667" fill="none" fill-rule="evenodd"/><path d="M752.5 735.64C773.857 684.189 795.214 632.738 816.786 603.215 838.357 573.692 860.357 558.5 881.929 558.5 903.5 558.5 924.786 573.548 946.215 603.215 967.643 632.882 989.072 684.691 1010.5 736.5" stroke="#D74514" stroke-width="9.16667" stroke-miterlimit="8" fill="none" fill-rule="evenodd"/><path d="M0 177.14C21.44 125.689 42.88 74.2381 64.535 44.7149 86.1899 15.1917 108.275 0 129.93 0 151.585 0 172.954 15.0483 194.465 44.7149 215.977 74.3814 237.488 126.19 259 178" stroke="#D74514" stroke-width="9.16667" stroke-miterlimit="8" fill="none" fill-rule="evenodd" transform="matrix(1 0 0 -1 493.5 913.5)"/><path d="M1269.5 733.64C1290.86 682.189 1312.21 630.738 1333.79 601.215 1355.36 571.692 1377.36 556.5 1398.93 556.5 1420.5 556.5 1441.79 571.548 1463.21 601.215 1484.64 630.882 1506.07 682.691 1527.5 734.5" stroke="#D74514" stroke-width="9.16667" stroke-miterlimit="8" fill="none" fill-rule="evenodd"/><path d="M0 177.14C21.44 125.689 42.88 74.2382 64.535 44.715 86.1899 15.1917 108.275 0 129.93 0 151.585 0 172.954 15.0484 194.465 44.715 215.977 74.3816 237.488 126.191 259 178" stroke="#D74514" stroke-width="9.16667" stroke-miterlimit="8" fill="none" fill-rule="evenodd" transform="matrix(1 0 0 -1 1010.5 911.5)"/><path d="M1609.82 646.968 1615.41 646.968 1613.18 656.979 1625.5 656.979 1624.61 661.072 1612.29 661.072 1608.68 676.796C1607.98 679.849 1607.53 682.045 1607.35 683.382 1607.16 684.72 1607.06 685.794 1607.06 686.604 1607.06 689.954 1608.45 691.629 1611.24 691.629 1612.43 691.629 1613.69 691.177 1615.03 690.272 1616.36 689.367 1617.95 687.82 1619.79 685.631L1622.14 688.063C1619.79 690.9 1617.52 692.994 1615.35 694.345 1613.17 695.696 1610.9 696.371 1608.52 696.371 1602.87 696.371 1600.05 693.521 1600.05 687.82 1600.05 686.01 1600.28 684.105 1600.74 682.106L1605.52 661.072 1598.71 661.072 1599.32 658.275C1600.92 658.248 1602.12 658.127 1602.95 657.911 1603.77 657.695 1604.46 657.397 1605.02 657.019 1605.57 656.641 1606.08 656.1 1606.54 655.398 1606.99 654.696 1607.44 653.797 1607.87 652.703 1608.3 651.609 1608.95 649.697 1609.82 646.968Z" fill-rule="evenodd"/><text fill="#000000" fill-opacity="0" font-family="Arial,Arial_MSFontService,sans-serif" font-size="49.4028" x="1598.71" y="690.196">𝑡</text><path d="M1115.52 476.68C1116.36 476.68 1117.09 476.775 1117.73 476.964 1118.36 477.153 1118.92 477.443 1119.41 477.835 1119.9 478.227 1120.33 478.733 1120.71 479.355 1121.09 479.976 1121.45 480.821 1121.8 481.888 1122.15 482.955 1122.48 484.279 1122.8 485.859 1123.11 487.44 1123.38 489.081 1123.63 490.784L1124.03 490.784C1126.63 487.136 1128.59 484.468 1129.93 482.779 1131.27 481.091 1132.39 479.834 1133.31 479.01 1134.23 478.186 1135.12 477.605 1135.97 477.268 1136.82 476.93 1137.95 476.761 1139.35 476.761 1140.62 476.761 1141.66 476.923 1142.47 477.247L1140.85 484.583 1138.01 484.583C1137.85 483.448 1137.38 482.881 1136.59 482.881 1136.35 482.881 1136.09 482.921 1135.82 483.002 1135.55 483.083 1135.22 483.259 1134.83 483.529 1134.44 483.799 1133.87 484.326 1133.11 485.11 1132.35 485.893 1131.5 486.852 1130.56 487.987 1129.61 489.122 1128.64 490.311 1127.64 491.554L1124.88 494.998C1125.37 497.592 1125.83 499.835 1126.26 501.726 1126.69 503.617 1127.08 505.191 1127.42 506.447 1127.75 507.704 1128.05 508.697 1128.31 509.426 1128.56 510.156 1128.84 510.703 1129.14 511.067 1129.44 511.432 1129.74 511.689 1130.05 511.837 1130.36 511.986 1130.72 512.06 1131.12 512.06 1131.85 512.06 1132.56 511.777 1133.25 511.209 1133.94 510.642 1134.93 509.359 1136.23 507.359L1138.86 509.102C1136.97 511.912 1135.26 513.891 1133.74 515.039 1132.21 516.187 1130.39 516.762 1128.29 516.762 1127.12 516.762 1126.14 516.552 1125.33 516.133 1124.52 515.715 1123.82 515.046 1123.22 514.127 1122.63 513.209 1122.1 511.777 1121.64 509.831 1120.8 506.373 1120.29 503.725 1120.1 501.888L1119.69 501.888C1116.83 505.914 1114.7 508.805 1113.31 510.561 1111.92 512.317 1110.77 513.614 1109.87 514.451 1108.96 515.289 1108.08 515.877 1107.23 516.214 1106.38 516.552 1105.25 516.721 1103.85 516.721 1102.58 516.721 1101.54 516.559 1100.73 516.235L1102.35 508.899 1105.19 508.899C1105.35 510.034 1105.82 510.601 1106.6 510.601 1106.98 510.601 1107.38 510.5 1107.8 510.297 1108.22 510.095 1108.82 509.608 1109.6 508.838 1110.39 508.068 1111.47 506.859 1112.85 505.211 1114.22 503.563 1116.22 501.091 1118.84 497.795 1118.44 495.66 1118.02 493.607 1117.59 491.635 1117.16 489.662 1116.71 487.825 1116.25 486.123 1115.79 484.421 1115.41 483.306 1115.12 482.779 1114.82 482.253 1114.5 481.888 1114.16 481.685 1113.83 481.482 1113.4 481.381 1112.89 481.381 1112.32 481.381 1111.81 481.51 1111.35 481.766 1110.89 482.023 1110.39 482.469 1109.85 483.104 1109.31 483.739 1108.59 484.731 1107.7 486.082L1105.06 484.34C1106.77 481.773 1108.4 479.855 1109.97 478.585 1111.54 477.315 1113.39 476.68 1115.52 476.68Z" fill-rule="evenodd"/><text fill="#000000" fill-opacity="0" font-family="Arial,Arial_MSFontService,sans-serif" font-size="40.0815" x="1100.73" y="511.751">𝑥</text><path d="M1217.67 453.999C1225.56 456.079 1231.62 460.571 1235.85 467.474 1240.07 474.377 1242.19 482.706 1242.19 492.459 1242.19 502.24 1240.08 510.568 1235.87 517.445 1231.65 524.321 1225.59 528.799 1217.67 530.879L1216.7 527.759C1222.94 525.678 1227.58 521.572 1230.62 515.438 1233.66 509.305 1235.18 501.511 1235.18 492.054 1235.18 482.922 1233.66 475.337 1230.64 469.298 1227.61 463.259 1222.92 459.2 1216.58 457.12ZM1177.94 453.999 1179.03 457.12C1172.71 459.2 1168.03 463.259 1164.99 469.298 1161.95 475.337 1160.43 482.922 1160.43 492.054 1160.43 501.511 1161.95 509.305 1164.99 515.438 1168.03 521.572 1172.67 525.678 1178.91 527.759L1177.94 530.879C1170.02 528.799 1163.96 524.321 1159.74 517.445 1155.53 510.568 1153.42 502.24 1153.42 492.459 1153.42 482.706 1155.53 474.377 1159.76 467.474 1163.99 460.571 1170.05 456.079 1177.94 453.999Z" fill-rule="evenodd"/><path d="M1196.21 467.359 1201.8 467.359 1199.57 477.369 1211.89 477.369 1211 481.462 1198.68 481.462 1195.07 497.187C1194.37 500.24 1193.93 502.435 1193.74 503.773 1193.55 505.11 1193.45 506.184 1193.45 506.994 1193.45 510.345 1194.84 512.02 1197.63 512.02 1198.82 512.02 1200.08 511.567 1201.42 510.662 1202.75 509.757 1204.34 508.21 1206.18 506.022L1208.53 508.453C1206.18 511.29 1203.92 513.384 1201.74 514.735 1199.57 516.086 1197.29 516.762 1194.91 516.762 1189.26 516.762 1186.44 513.911 1186.44 508.21 1186.44 506.4 1186.67 504.495 1187.13 502.496L1191.91 481.462 1185.1 481.462 1185.71 478.666C1187.31 478.639 1188.52 478.517 1189.34 478.301 1190.16 478.085 1190.85 477.788 1191.41 477.409 1191.96 477.031 1192.47 476.491 1192.93 475.788 1193.39 475.086 1193.83 474.188 1194.26 473.093 1194.7 471.999 1195.34 470.088 1196.21 467.359Z" fill-rule="evenodd"/><text fill="#000000" fill-opacity="0" font-family="Arial,Arial_MSFontService,sans-serif" font-size="49.4028" x="1185.1" y="510.586">𝑡</text><path d="M488.13 597.967 473.703 623.499 489.549 623.499 488.86 610.449C488.779 608.666 488.711 606.437 488.657 603.762 488.603 601.088 488.576 599.156 488.576 597.967ZM488.373 589.416 494.493 589.416 497.411 634.604C497.546 636.738 497.789 638.407 498.141 639.609 498.492 640.811 498.971 641.703 499.579 642.284 500.187 642.865 501.072 643.236 502.234 643.398L501.788 645.384 484.929 645.384 485.374 643.398C486.968 643.263 488.157 642.642 488.941 641.534 489.724 640.426 490.116 638.481 490.116 635.698 490.116 634.644 490.076 633.496 489.995 632.253L489.711 627.025 471.879 627.025 469.65 630.997C468.596 632.861 467.826 634.462 467.34 635.799 466.853 637.137 466.61 638.319 466.61 639.345 466.61 641.615 467.975 642.966 470.703 643.398L470.258 645.384 453.682 645.384 454.128 643.398C454.965 643.29 455.756 642.959 456.499 642.405 457.242 641.851 458.032 641.014 458.87 639.893 459.707 638.771 460.882 636.914 462.395 634.32Z" fill="#D74514" fill-rule="evenodd"/><text fill="#000000" fill-opacity="0" font-family="Arial,Arial_MSFontService,sans-serif" font-size="55.9683" x="453.682" y="638.388">𝐴</text><path d="M460.667 967.783 510.596 967.783 510.596 973.173 460.667 973.173Z" fill="#D74514" fill-rule="evenodd"/><text fill="#000000" fill-opacity="0" font-family="Arial,Arial_MSFontService,sans-serif" font-size="5.39014" x="460.667" y="972.499">−</text><path d="M550.424 946.79 535.997 972.322 551.843 972.322 551.154 959.272C551.073 957.489 551.005 955.26 550.951 952.585 550.897 949.91 550.87 947.978 550.87 946.79ZM550.668 938.238 556.787 938.238 559.705 983.426C559.84 985.561 560.083 987.229 560.435 988.432 560.786 989.634 561.266 990.525 561.873 991.106 562.481 991.687 563.366 992.059 564.528 992.221L564.082 994.207 547.223 994.207 547.669 992.221C549.263 992.086 550.451 991.464 551.235 990.357 552.018 989.249 552.41 987.304 552.41 984.521 552.41 983.467 552.37 982.319 552.289 981.076L552.005 975.848 534.173 975.848 531.944 979.819C530.89 981.684 530.12 983.285 529.634 984.622 529.148 985.959 528.904 987.141 528.904 988.168 528.904 990.438 530.269 991.789 532.998 992.221L532.552 994.207 515.976 994.207 516.422 992.221C517.26 992.113 518.05 991.782 518.793 991.228 519.536 990.674 520.326 989.836 521.164 988.715 522.001 987.594 523.177 985.736 524.69 983.143Z" fill="#D74514" fill-rule="evenodd"/><text fill="#000000" fill-opacity="0" font-family="Arial,Arial_MSFontService,sans-serif" font-size="55.9683" x="515.976" y="987.211">𝐴</text></g></svg>
